X:235
T:The Ladeys Man
C:No 235 William Clarke of Feltwell
M:2/4
L:1/8
N:In the m.s., immediately below the third part is the instruction “2 time an octave higher”, which could refer to this tune or no 236.
K:C
G|.G(c/d/) .c.G|.c(c/d/) .c.G|.G.c.G.e|.c.ag2|.f(a/g/)a2|.e(g/f/)g2|.d(f/e/)f2|.e.c.c::g|.c’.b.a.g|.c’.b.a.g|.c’/.d’/.b/.c’/ .a/.b/.g/.a/|.f/.g/.e/.f/ df|.b.a.g.f|.b.a.g.f|.b/.c’/.a/.b/ g/a/f/g/|ecc”D.C.”:|
K:A
|:D|.A.B.c.d|.e.^d.f.e|.d.^c.e.d|.=c.B.d.c|.B.A.=c.B|.A.G.B.A|.G.F.E.D|.c.B.A|]

